X: 36202
T: Scotty Fitzgerald's
R: jig
M: 6/8
K: Amajor
|:E|ABA c2 d|eag fed|cBA EAc|d2 B B2 c|
ABA c2 d|eag fed|cBA EAB|c2 A A2:|
e|c'3 cae|aga e2 d|cBA aec|d2 B B2 e|
c'3 cae|aga edc|dcd bag|a3 a2 e|
c'3 cae|aga e2 d|cBA aec|d2 B B2 d|
cde Ace|def Bba|gfe dcB|A3 A2||

